X:333
T:Old Dangerfield
C:Bill Monroe - Arr. Mike Stangeland
N:Arranged ofr guitar by Mike Stangeland
R:bluegrass
L:1/8
Q:1/4=230
M:4/4
K:A
z6 =GA |: A2 =GE D=C A,=G, | A,2 AB =cB A=G | A2 =GE D=C A,C | "E"DE D=C "Am"A,2 =GA | 
A2 =GE D=C A,=G, | A,2 AB =cB cB | A2 =GE D=C A,C |1 DE D=C "Am"A,2 =GA :|2 DE D=C "Am"A,2 A,B, | 
|: "Am"=CD E=G A2 GF | "D"DF =GA d2 A,B, | "Am"=CD E=G A2 AG | "E"GB e2 e2 =CB, | 
"Am"A,=C E=G A2 AD | "D"DF AB =cB A=G | "Am"A2 =GE D=C A,C |1 DE D=C "Am"A,2 A,A, :|2 DE D=C "Am"A,2 A,B, | 
M:2/4
"Am"=CD E=G | 
M:4/4
|: "Am"A2 AB A=G EG | A2 AB =cB A=G | "E"E2 E,=G, A,B, D^D | E2 D^D E=G ED | "D"D2 d=c AG =G=F | 
D=C D^D ED =DC | "Am"A,2 =CD ^DE =G^G | A2 ed =cA =G=F | "G"=G2 GB AG ED | =G2 AA AB A2 | 
"Am"E=G AG ED =CD | E2 A2 AB =c^c | "D"d2 de fd cd | "E"de ea ed c=G | "Am"A2 A=G E^D =D=C | 
|1 A,4 "Am"=CD E=G :|2 A8 | z8 | z8 | 


